!!!COM:	Martini, Johannes
!!!CDT:	~1440///-~1497//
!!!OTL:	Il est tel
!!!AGN:	Song; Chanson
!!!SCT:	Mar3011
!!!SCA:	Mar3011
!!!voices:	3
**kern	**kern	**kern
*staff3	*staff2	*staff1
*Ivox	*Ivox	*Ivox
*I"Contratenor	*I"Tenor	*I"Cantus
*I'Ct	*I'T	*I'Cn
*clefGv2	*clefGv2	*clefG2
*k[]	*k[]	*k[]
*M2/1	*M2/1	*M2/1
*met(C)	*met(C)	*met(C)
=1-	=1-	=1-
2.G/	0r	0r
4A/	.	.
2B\	.	.
[2c\	.	.
=2	=2	=2
2c\]	1r	0r
4B\	.	.
4A/	.	.
2.G/	2.G/	.
4F/	4A/	.
=3	=3	=3
2G/	2B\	0r
1A	1c	.
4G/	4B\	.
4F/	4A/	.
=4	=4	=4
1E	2.G/	2.g/
.	4F/	4a/
2r	2G/	2b\
2e\	[2A/	[2cc\
=5	=5	=5
2c\	2A/]	2cc\]
2d\	4G/	4b\
.	4F/	4a/
1e	2E/	2.g/
.	2C/	.
.	.	4f/
=6	=6	=6
2c\	2E/	2g/
2.c\	2F/	1a
.	1D	.
4A/	.	.
2B\	.	4g/
.	.	4f/
=7	=7	=7
1.c	1C	2e/
.	.	2c/
.	1r	2e/
[2d\	.	2f/
=8	=8	=8
4d\]	2r	1d
4A/	.	.
2B\	2G/	.
2c\	2A/	1c
2A/	2c\	.
=9	=9	=9
2G/	2B\	1r
4F/	2.d\	.
4E/	.	.
2D/	.	2r
.	4c\	.
[2G/	2B\	2g/
=10	=10	=10
2G/]	1A	2a/
2F#i/	.	2cc\
1G	2G/	2b\
.	4F/	[2dd\
.	4E/	.
=11	=11	=11
1d	2D/	4dd\]
.	.	4cc\
.	1G	2b\
2r	.	1a
2D/	2F/	.
=12	=12	=12
2E/	2G/	2g/
2F/	2A/	4f/
.	.	4e/
2G/	2B\	2d/
[2C/	[2c\	[2e/
=13	=13	=13
4C/]	4c\]	4e/]
4D/	4B\	4d/
2E/	4A/	1g
.	4G/	.
1D	1A	.
.	.	2f#i/
=14	=14	=14
2r	1G	0g
1E	.	.
.	2r	.
[2C/	[2E/	.
=15	=15	=15
4C/]	2E/]	2r
4D/	.	.
2.E/	2.C/	1e
4F/	4D/	.
2G/	[2E/	[2c/
=16	=16	=16
2A/	4E/]	4c/]
.	4F/	4d/
2.G/	2G/	2.e/
.	2A/	.
4F/	.	4f/
4E/	[2G/	2g/
4D/	.	.
=17	=17	=17
2C/	4G/]	2a/
.	4F/	.
2r	4E/	2.g/
.	4D/	.
2.c\	2C/	.
.	.	4f/
.	2r	4e/
4B\	.	4d/
=18	=18	=18
4A/	1c	2c/
4G/	.	.
2F/	.	2r
2G/	2B\	1g
2C/	2c\	.
=19	=19	=19
2D/	2A/	2f/
1E	1G	2g/
.	.	2e/
2A/	2F/	[2d/
=20	=20	=20
2B\	2G/	2d/]
1G	2E/	1c
.	1D	.
2F/	.	2B/
=21	=21	=21
1G	[0C	[0c
2r	.	.
2G/	.	.
=22	=22	=22
2A/	1C]	1c]
2c\	.	.
2B\	1r	2r
2B\	.	2g/
=23	=23	=23
2.c\	1r	2a/
.	.	2cc\
4B\	.	.
2G/	2r	2b\
2d\	2G/	2b\
=24	=24	=24
2c\	2A/	2.cc\
1e	2c\	.
.	.	4b\
.	2B\	2g/
2d\	2B\	2dd\
=25	=25	=25
2.e\	2.c\	2cc\
.	.	1ee
4d\	4B\	.
1B	2G/	.
.	2d\	2dd\
=26	=26	=26
1c	2c\	2.ee\
.	1e	.
.	.	4dd\
1G	.	1b
.	2d\	.
=27	=27	=27
2C/	2e\	1cc
2E/	4d\	.
.	4c\	.
2D/	2B\	2dd\
[2C/	[2c\	[2ee\
=28	=28	=28
1C]	2c\]	4ee\]
.	.	4dd\
.	2e\	1cc
1G	1d	.
.	.	2b\
=29	=29	=29
2C/	1c	2cc\
2.F/	.	2.a/
.	2A/	.
4G/	.	4g/
2A/	2c\	2e/
=30	=30	=30
2D/	2d\	2f/
2C/	1e	1g
2E/	.	.
2F/	4d\	4f/
.	4c\	4e/
=31	=31	=31
1G;	0B;	0d;
2D/	.	.
[2G/	.	.
=32	=32	=32
4G/]	1B	2r
4F/	.	.
4E/	.	2.g/
4D/	.	.
1C	1c	.
.	.	4f/
.	.	2g/
=33	=33	=33
2.F/	2r	2a/
.	2.c\	4g/
4G/	.	4f/
1A	.	1e
.	4B\	.
.	2c\	.
=34	=34	=34
2B\	2d\	2d/
2G/	4c\	1g
.	4B\	.
1D	1A	.
.	.	2f#i/
=35	=35	=35
2E/	2G/	1g
2C/	1c	.
1D	.	2r
.	2B\	2d/
=36	=36	=36
1C	1c	2e/
.	.	1g
1BB-	2r	.
.	2d\	2f/
=37	=37	=37
1C	2e\	2e/
.	1g	4d/
.	.	4c/
1D	.	1B
.	2f\	.
=38	=38	=38
2C/	2e\	2c/
2.E/	4d\	2.g/
.	4c\	.
.	1B	.
4F/	.	4f/
2G/	.	4e/
.	.	4d/
=39	=39	=39
0C	2c\	1e
.	2.g\	.
.	.	1c
.	4f\	.
.	4e\	.
.	4d\	.
=40	=40	=40
0C	1e	2r
.	.	2c/
.	1c	2.e/
.	.	4f/
=41	=41	=41
1c	2r	2g/
.	2C/	2a/
2r	2.E/	2g/
2G/	.	4f/
.	4F/	4e/
=42	=42	=42
2B\	2G/	2d/
2c\	2A/	2r
2B\	2G/	2dd\
4A/	4F/	[2dd\
4G/	4E/	.
=43	=43	=43
2A/	2D/	4dd\]
.	.	4cc\
1G	2d\	2dd\
.	2.d\	2b\
[2F/	.	[2a/
.	4c\	.
=44	=44	=44
2F/]	2d\	4a/]
.	.	4g/
2G/	2B\	1g
1D	1A	.
.	.	2f#i/
=45	=45	=45
2r	1G	0g
1G	.	.
.	2r	.
2E/	2G/	.
=46	=46	=46
2F/	2A/	2r
2G/	2B\	2g/
2C/	2.c\	2.a/
[2c\	.	.
.	4d\	4b\
=47	=47	=47
2c\]	1e	1cc
2A/	.	.
2B\	2d\	2dd\
2c\	[2g\	[2ee\
=48	=48	=48
2G/	2g\]	2ee\]
1d	4f\	4dd\
.	4e\	4cc\
.	1d	1b
2B\	.	.
=49	=49	=49
2c\	2e\	2r
2d\	1d	2a/
1G	.	2b\
.	2B\	[2g/
=50	=50	=50
2E/	2c\	2g/]
2F/	2d\	2f/
2G/	1G	2d/
2C/	.	[2e/
=51	=51	=51
2r	2E/	2e/]
2D/	2F/	4d/
.	.	4c/
2E/	2G/	2B/
[2G/	[2C/	[2e/
=52	=52	=52
4G/]	2C/]	4e/]
4F/	.	4d/
2G/	2E/	1c
2A/	1D	.
2F/	.	2B/
=53	=53	=53
0Gl	0Cl	0cl
==	==	==
*-	*-	*-
!!!RDF**kern: l=long note in original notation
!!!RDF**kern: i=editorial accidental
!!!ENC:	Chris Gage 10-06-2014
!!!END:	2015/03/01/
!!!EED:	Jesse Rodin
!!!EEV:	2015/03/05/
!!!ONB:	Translated from MusicXML and edited on 2015/03/05/ by Craig Sapp
!!muse2ps: C^@{COM}^i2I150v85,85,150Q16
